X:1
T:Es seyn die Heiligen
T:André Vierendeels
T:Melody by Georg Vogler (1625) (Soprano voice)
T:Source ; Catechismus---Würzburg---J.Volmari---1652. Editor : André Vierendeels (13/10/17). 
T:Notes : Original clef : C1, other voices supplied editorially Original note values have been halved Text Middle German
T:Es seyn die heilgen Sacrament
T:©
T:©
C:André Vierendeels
Z:©
%%score [ 1 2 3 ]
L:1/8
Q:1/4=90
M:2/2
K:C
V:1 treble nm="Soprano" snm="S"
V:2 treble-8 nm="Tenor" snm="T"
V:3 bass nm="Bass" snm="B"
V:1
"^1)" B4 E2 B2 | c2 B2 G2 A2 | B4 B4 | c4 d2 c2 | B4 G2 F2 | E4 A4 | G2 c2 B4 | A2 d4 c2 | B8 | %9
w: Es seyn die|heil- gen Sa- cra-|ment, sicht-|bar- li- che|Zei- chen ge-|nennt, so|von Gott selb-|sten or- *|di-|
w: Der Tauff, die|Con- fir- ma- ti-|on, das|dritt Chri- sti|Fron- leich- namb|schon: das|vierdt die Busz|mit rech- *|ter|
 A8 | c4 B2 G2 | A2 c2 c2 B2 | c4 c4 | B2 c2 d2 G2 | Bc A2 G4 | G4 c2 B2 | A2 E2 G2 F2 | E8 |] %18
w: nirt,|dar- durch die|Gnad emp- fan- gen|wird, de-|ren seyn sie- ben|an _ der Zahl,|da- für ich|danck Gott tau- send-|mal.|
w: Biecht,|dan fünfft die|let- zte Oe- lung|recht, das|sech- ste die Prie-|* * ster- weyh,|das sie- bend|dann der Ehe- stand|sey.|
V:2
"^2)""^1)" e4 B2 e2 | e2 d2 c2 e2 | g4 e4 | e4 d2 e2 | g4 e2 A2 | B4 c4 | c2 e2 d4 | f2 f2 d2 e2 | %8
w: Es seyn die|heil- gen Sa- cra-|ment, sicht-|bar- li- che|Zei- chen ge-|nennt, so|von Gott selb-|sten or- * *|
w: Nun frag ich|dich, was ist die|Tauff, da|gib fer- tig|Ant- * wordt|drauff? Die|Tauff ist das|erst Sa- * *|
 g8 | e8 | e4 d2 e2 | e2 c2 e2 d2 | e4 e4 | g2 e2 d2 e2 | d2 c2 B4 | e4 e2 d2 | f2 c2 _B2 A2 | %17
w: di-|nirt,|dar- durch die|Gnad emp- fan- gen|wird, de-|ren seyn sie- ben|an der Zahl,|da- für ich|danck Gott tau- send-|
w: cra-|ment,|und das noth-|wen- digst zu em|End, dasz|durch Was- ser und|Got- tes Wort,|der Mensch ge-|ei- nigt werd all-|
 ^c8 |] %18
w: mal.|
w: dort.|
V:3
"^3)""^1)""^3)" E,4 G,2 E,2 | C,2 G,2 E,2 A,2 | E,4 E,4 | C,4 G,2 C,2 | E,4 C,2 D,2 | E,4 A,,4 | %6
w: Es seyn die|heil- gen Sa- cra-|ment, sicht-|bar- li- che|Zei- chen ge-|nennt, so|
w: Von Sün- den|sau- ber, schön und|pur, und|werd ein ne-|we Cre- a-|tur. Was|
 C,2 E,2 G,4 | F,2 D,2 F,2 A,2 | E,8 | A,,8 | C,4 G,2 C2 | A,2 C,2 E,2 G,2 | A,4 A,4 | %13
w: von Gott selb-|sten or- * *|di-|nirt,|dar- durch die|Gnad emp- fan- gen|wird, de-|
w: ist die Fir-|mung und ihr _|_|End,|das an- der|hei- lig Sa- cra-|ment? In|
 E,2 C,2 G,2 C,2 | G,2 A,2 G,4 | C,4 C,2 G,2 | F,2 C,2 G,2 D,2 | A,8 |] %18
w: ren sen sie- ben|an der Zahl;|da- für ich|danck Gott tau- send-|mal.|
w: ihe wird der Mensch|so ge- taufft,|(wann ihn der|Bö- se Geist an-|laufft).|

